X: 36399
T: Seán Sa Cheo
R: reel
M: 4/4
K: Amixolydian
~e2dg eABd|~e2eg d2BA|Beed efgd|(3Bcd ge dGBd:|
cA~A2 (3cBA Bd|cA~A2 DGBd|cA~A2 EA~A2|1 B2ge dGBd:|2 B2ge defg||
a2c'a bac'a|~a2c'a e3f|~g2bg agbg|~g2bg ~e2fg|
a2c'a bac'a|~a2c'a e2ef|~g2ge agef|g2eg dGBd||

